X: 60
T: Al Yanına Bir Dil-nevaz
C: Dellalzâde İsmail Efendi
O: Turkey
F: http://compmusic.upf.edu/node/140
N: mahur--sarki--aksak--al_yanina--dellalzade_haci_ismail_efendi
N: makam= mahur
N: form= sarki
N: usul= aksak = 9/8
M: 9/8
L: 1/16
K: C ^9/8f   
Q: 1/4=132
%%MIDI tuningsystem comma53
g2fg a2ba g2fg e6 | d4e2 def2 efg6  | \
w:  ARANAĞME  |   | 
d4 g4 d2ed dcBA G2 | 
w:   | 
A2 BAG2 A2GF ^1/4EFG6  | g2fg a2ba g2fg e6 | \
w:   |  ARANAĞME  | 
d4e2 def2 efg6  | 
w:   | 
d4 g4 d2ed dcBA G2 | A2 BAG2 A2GF ^1/4EFG6  | \
w:   |   | 
g2fg a3/2c'/ba g2fg e4 f2 | 
w:  Al  *  *  ya *  *  *  nı *  *  na   | 
d4e2 def2 efg4z2  | z2c'4c'b b3/2a/g2 a2{c'}ba ga | 
w:  bir  dil *  *  ne *  *  vaz    |  Yâr  *  *  *  *  *  me *  le  | 
f2 g4 {a}gff^1/4e efg4z2  | g2fg a2{c'}ba g2fg e4 a2 | 
w:  ğim  *  *  a *  man  *  a *  man    |  Gön *  *  lün *  *  *  ce  *  *  gez   | 
e4_1/4e3dd_2/4e d_3/4eg^f _7/8edc2  | \
w:  zevk  et  *  bu  *  *  *  yaz    | 
z2c4cB B3/2A/G2 A2{c}BA GA | 
w:  Yâr  *  *  *  *  *  me *  le  | 
F2 G4 {A}GFF^1/4E EFG4z2  | g2fg a2{c'}ba g2fg e4 a2 | 
w:  ğim  *  *  a *  man  *  a *  man    |  Gön *  *  lün *  *  *  ce  *  *  gez   | 
e4_1/4e3dd_2/4e d_3/4eg^f _7/8edc2  | \
w:  zevk  et  *  bu  *  *  *  yaz    | 
z2c4cB B3/2A/G2 A2{c}BA GA | 
w:  Yâr  *  *  *  *  *  me *  le  | 
F2 G4 {A}GFF^1/4E EFG4z2  | c4 c3B B3A A_BAB AG | 
w:  ğim  *  *  a *  man  *  a *  man    |  Baş tan *  ba *  şa   | 
A_B ABA3/2c/ BAAG {A}GFG4z2  | z2c'4c'b b3/2a/g2 a2{c'}ba ga | 
w:  iş *  *  *  te  *  *  *  Bo *  *  *  *  ğaz    |  Yâr  *  *  *  *  *  me *  le  | 
f2 g4 {a}gff^1/4e efg4z2  | g2fg a2{c'}ba g2fg e4 a2 | 
w:  ğim  *  *  a *  man  *  a *  man    |  Gön *  *  lün *  *  *  ce  *  *  gez   | 
e4_1/4e3dd_2/4e d_3/4eg^f _7/8edc2  | \
w:  zevk  et  *  bu  *  *  *  yaz    | 
z2c4cB B3/2A/G2 A2{c}BA GA | 
w:  Yâr  *  *  *  *  *  me *  le  | 
F2 G4 {A}GFF^1/4E EFG4z2  | g2fg a2{c'}ba g2fg e4 a2 | 
w:  ğim  *  *  a *  man  *  a *  man    |  Gön *  *  lün *  *  *  ce  *  *  gez   | 
e4_1/4e3dd_2/4e d_3/4eg^f _7/8edc2  | \
w:  zevk  et  *  bu  *  *  *  yaz    | 
z2c4cB B3/2A/G2 A2{c}BA GA | 
w:  Yâr  *  *  *  *  *  me *  le  | 
F2 G4 {A}GFF^1/4E EFG4z2  | |


